packages/design-system/src/icons/assets/btn_account_gray_24.svg

<svg width="24" height="25" viewBox="0 0 24 25" fill="none" xmlns="http://www.w3.org/2000/svg">
<g clip-path="url(#clip0_860_5826)">
<path d="M12 2.69995C6.48 2.69995 2 7.17995 2 12.7C2 18.22 6.48 22.7 12 22.7C17.52 22.7 22 18.22 22 12.7C22 7.17995 17.52 2.69995 12 2.69995ZM12 6.69995C13.93 6.69995 15.5 8.26995 15.5 10.2C15.5 12.13 13.93 13.7 12 13.7C10.07 13.7 8.5 12.13 8.5 10.2C8.5 8.26995 10.07 6.69995 12 6.69995ZM12 20.7C9.97 20.7 7.57 19.88 5.86 17.82C7.55 16.5 9.68 15.7 12 15.7C14.32 15.7 16.45 16.5 18.14 17.82C16.43 19.88 14.03 20.7 12 20.7Z" fill="#212224"/>
</g>
<defs>
<clipPath id="clip0_860_5826">
<rect width="24" height="24" fill="white" transform="translate(0 0.699951)"/>
</clipPath>
</defs>
</svg>

<svg xmlns="http://www.w3.org/2000/svg" width="24" height="25" fill="none"><g clip-path="url(#a)"><path fill="#212224" d="M12 2.7c-5.52 0-10 4.48-10 10s4.48 10 10 10 10-4.48 10-10-4.48-10-10-10m0 4c1.93 0 3.5 1.57 3.5 3.5s-1.57 3.5-3.5 3.5-3.5-1.57-3.5-3.5 1.57-3.5 3.5-3.5m0 14c-2.03 0-4.43-.82-6.14-2.88a9.95 9.95 0 0 1 12.28 0c-1.71 2.06-4.11 2.88-6.14 2.88"/></g><defs><clipPath id="a"><path fill="#fff" d="M0 .7h24v24H0z"/></clipPath></defs></svg>
